;FLAVOR:UltiGCode
;TIME:3209
;MATERIAL:3580
;MATERIAL2:0
;NOZZLE_DIAMETER:0.4
;Generated with Cura_SteamEngine 3.1.0
M82 ; absolute extrusion mode

;LAYER_COUNT:219
;LAYER:0
M107
G0 F3600 X101.43 Y90.539 Z0.3
;TYPE:SKIRT
G1 F1800 X101.835 Y90.102 E0.0715
G1 X101.952 Y89.985 E0.09135
G1 X102.538 Y89.455 E0.18617
G1 X103.174 Y88.988 E0.28085
G1 X103.854 Y88.587 E0.37558
G1 X104.572 Y88.257 E0.47041
G1 X105.319 Y88.002 E0.56513
G1 X106.088 Y87.823 E0.65988
G1 X106.872 Y87.723 E0.75472
G1 X107.467 Y87.7 E0.82617
G1 X115.533 Y87.7 E1.79409
G1 X116.322 Y87.74 E1.88889
G1 X117.102 Y87.859 E1.98358
G1 X117.867 Y88.057 E2.0784
G1 X118.607 Y88.331 E2.17309
G1 X119.316 Y88.679 E2.26787
G1 X119.987 Y89.097 E2.36273
G1 X120.611 Y89.58 E2.45742
G1 X121.048 Y89.985 E2.52892
G1 X121.165 Y90.102 E2.54878
G1 X121.695 Y90.688 E2.64359
G1 X122.162 Y91.324 E2.73828
G1 X122.563 Y92.004 E2.83301
G1 X122.893 Y92.722 E2.92783
G1 X123.148 Y93.469 E3.02255
G1 X123.327 Y94.238 E3.1173
G1 X123.427 Y95.022 E3.21214
G1 X123.45 Y95.617 E3.2836
G1 X123.45 Y127.383 E7.09552
G1 X123.41 Y128.172 E7.19032
G1 X123.291 Y128.952 E7.285
G1 X123.093 Y129.717 E7.37983
G1 X122.819 Y130.457 E7.47452
G1 X122.471 Y131.166 E7.56929
G1 X122.053 Y131.837 E7.66416
G1 X121.57 Y132.461 E7.75885
G1 X121.165 Y132.898 E7.83035
G1 X121.048 Y133.015 E7.8502
G1 X120.462 Y133.545 E7.94502
G1 X119.826 Y134.012 E8.0397
G1 X119.146 Y134.413 E8.13443
G1 X118.428 Y134.743 E8.22926
G1 X117.681 Y134.998 E8.32398
G1 X116.912 Y135.177 E8.41872
G1 X116.128 Y135.277 E8.51357
G1 X115.533 Y135.3 E8.58502
G1 X107.467 Y135.3 E9.55294
G1 X106.678 Y135.26 E9.64774
G1 X105.898 Y135.141 E9.74243
G1 X105.133 Y134.943 E9.83725
G1 X104.393 Y134.669 E9.93194
G1 X103.684 Y134.321 E10.02672
G1 X103.013 Y133.903 E10.12158
G1 X102.389 Y133.42 E10.21627
G1 X101.952 Y133.015 E10.28777
G1 X101.835 Y132.898 E10.30763
G1 X101.305 Y132.312 E10.40244
G1 X100.838 Y131.676 E10.49713
G1 X100.437 Y130.996 E10.59186
G1 X100.107 Y130.278 E10.68668
G1 X99.852 Y129.531 E10.7814
G1 X99.673 Y128.762 E10.87615
G1 X99.573 Y127.978 E10.97099
G1 X99.55 Y127.383 E11.04245
G1 X99.55 Y95.617 E14.85437
G1 X99.59 Y94.828 E14.94917
G1 X99.709 Y94.048 E15.04385
G1 X99.907 Y93.283 E15.13868
G1 X100.181 Y92.543 E15.23337
G1 X100.529 Y91.834 E15.32814
G1 X100.947 Y91.163 E15.42301
G1 X101.43 Y90.539 E15.5177
G0 F3600 X101.825 Y90.694
G1 F1800 X102.117 Y90.384 E15.5688
G1 X102.234 Y90.267 E15.58866
G1 X102.806 Y89.753 E15.68094
G1 X103.428 Y89.3 E15.77328
G1 X104.093 Y88.914 E15.86555
G1 X104.795 Y88.599 E15.95788
G1 X105.526 Y88.359 E16.05021
G1 X106.277 Y88.196 E16.14242
G1 X107.042 Y88.112 E16.23478
G1 X107.467 Y88.1 E16.2858
G1 X115.533 Y88.1 E17.25372
G1 X116.301 Y88.14 E17.346
G1 X117.061 Y88.259 E17.43831
G1 X117.804 Y88.457 E17.53058
G1 X118.523 Y88.731 E17.62292
G1 X119.209 Y89.078 E17.71517
G1 X119.856 Y89.494 E17.80747
G1 X120.456 Y89.975 E17.89975
G1 X120.766 Y90.267 E17.95086
G1 X120.883 Y90.384 E17.97071
G1 X121.397 Y90.956 E18.06299
G1 X121.85 Y91.578 E18.15533
G1 X122.236 Y92.243 E18.2476
G1 X122.551 Y92.945 E18.33993
G1 X122.791 Y93.676 E18.43226
G1 X122.954 Y94.427 E18.52448
G1 X123.038 Y95.192 E18.61683
G1 X123.05 Y95.617 E18.66785
G1 X123.05 Y127.383 E22.47977
G1 X123.01 Y128.151 E22.57205
G1 X122.891 Y128.911 E22.66437
G1 X122.693 Y129.654 E22.75664
G1 X122.419 Y130.373 E22.84897
G1 X122.072 Y131.059 E22.94122
G1 X121.656 Y131.706 E23.03353
G1 X121.175 Y132.306 E23.12581
G1 X120.883 Y132.616 E23.17691
G1 X120.766 Y132.733 E23.19677
G1 X120.194 Y133.247 E23.28905
G1 X119.572 Y133.7 E23.38138
G1 X118.907 Y134.086 E23.47365
G1 X118.205 Y134.401 E23.56599
G1 X117.474 Y134.641 E23.65831
G1 X116.723 Y134.804 E23.75053
G1 X115.958 Y134.888 E23.84288
G1 X115.533 Y134.9 E23.8939
G1 X107.467 Y134.9 E24.86182
G1 X106.699 Y134.86 E24.95411
G1 X105.939 Y134.741 E25.04642
G1 X105.196 Y134.543 E25.13869
G1 X104.477 Y134.269 E25.23102
G1 X103.791 Y133.922 E25.32327
G1 X103.144 Y133.506 E25.41558
G1 X102.544 Y133.025 E25.50786
G1 X102.234 Y132.733 E25.55896
G1 X102.117 Y132.616 E25.57882
G1 X101.603 Y132.044 E25.6711
G1 X101.15 Y131.422 E25.76344
G1 X100.764 Y130.757 E25.85571
G1 X100.449 Y130.055 E25.94804
G1 X100.209 Y129.324 E26.04036
G1 X100.046 Y128.573 E26.13258
G1 X99.962 Y127.808 E26.22494
G1 X99.95 Y127.383 E26.27596
G1 X99.95 Y95.617 E30.08788
G1 X99.99 Y94.849 E30.18016
G1 X100.109 Y94.089 E30.27247
G1 X100.307 Y93.346 E30.36474
G1 X100.581 Y92.627 E30.45708
G1 X100.928 Y91.941 E30.54933
G1 X101.344 Y91.294 E30.64163
G1 X101.825 Y90.694 E30.73391
G0 F3600 X101.742 Y91.428
G1 F1800 X102.4 Y90.667 E30.85463
G1 X102.517 Y90.55 E30.87449
G1 X103.074 Y90.05 E30.96431
G1 X103.68 Y89.613 E31.05397
G1 X104.33 Y89.242 E31.14378
G1 X105.016 Y88.943 E31.23358
G1 X105.73 Y88.719 E31.32337
G1 X106.463 Y88.572 E31.41309
G1 X107.467 Y88.5 E31.53387
G1 X115.533 Y88.5 E32.50179
G1 X116.28 Y88.54 E32.59156
G1 X117.018 Y88.659 E32.68127
G1 X117.74 Y88.857 E32.77111
G1 X118.436 Y89.13 E32.86082
G1 X119.099 Y89.477 E32.95062
G1 X119.722 Y89.892 E33.04045
G1 X120.483 Y90.55 E33.16117
G1 X120.6 Y90.667 E33.18103
G1 X121.1 Y91.224 E33.27085
G1 X121.537 Y91.83 E33.3605
G1 X121.908 Y92.48 E33.45031
G1 X122.207 Y93.166 E33.54011
G1 X122.431 Y93.88 E33.62991
G1 X122.578 Y94.613 E33.71962
G1 X122.65 Y95.617 E33.84041
G1 X122.65 Y127.383 E37.65233
G1 X122.61 Y128.13 E37.7421
G1 X122.491 Y128.868 E37.8318
G1 X122.293 Y129.59 E37.92164
G1 X122.02 Y130.286 E38.01136
G1 X121.673 Y130.949 E38.10115
G1 X121.258 Y131.572 E38.19098
G1 X120.6 Y132.333 E38.31171
G1 X120.483 Y132.45 E38.33156
G1 X119.926 Y132.95 E38.42138
G1 X119.32 Y133.387 E38.51104
G1 X118.67 Y133.758 E38.60085
G1 X117.984 Y134.057 E38.69065
G1 X117.27 Y134.281 E38.78044
G1 X116.537 Y134.428 E38.87016
G1 X115.533 Y134.5 E38.99095
G1 X107.467 Y134.5 E39.95887
G1 X106.72 Y134.46 E40.04863
G1 X105.982 Y134.341 E40.13834
G1 X105.26 Y134.143 E40.22818
G1 X104.564 Y133.87 E40.31789
G1 X103.901 Y133.523 E40.40769
G1 X103.278 Y133.108 E40.49752
G1 X102.517 Y132.45 E40.61824
G1 X102.4 Y132.333 E40.6381
G1 X101.9 Y131.776 E40.72792
G1 X101.463 Y131.17 E40.81757
G1 X101.092 Y130.52 E40.90738
G1 X100.793 Y129.834 E40.99718
G1 X100.569 Y129.12 E41.08698
G1 X100.422 Y128.387 E41.17669
G1 X100.35 Y127.383 E41.29748
G1 X100.35 Y95.617 E45.1094
G1 X100.39 Y94.87 E45.19917
G1 X100.509 Y94.132 E45.28887
G1 X100.707 Y93.41 E45.37871
G1 X100.98 Y92.714 E45.46843
G1 X101.327 Y92.051 E45.55823
G1 X101.742 Y91.428 E45.64805
G0 F3600 X102.139 Y91.567
G1 F1800 X102.683 Y90.95 E45.74676
G1 X102.8 Y90.833 E45.76662
G1 X103.341 Y90.349 E45.85373
G1 X103.932 Y89.926 E45.94094
G1 X104.566 Y89.572 E46.02808
G1 X105.235 Y89.289 E46.11524
G1 X105.931 Y89.081 E46.20241
G1 X106.646 Y88.951 E46.28962
G1 X107.467 Y88.9 E46.38833
G1 X115.533 Y88.9 E47.35625
G1 X116.258 Y88.94 E47.44338
G1 X116.975 Y89.059 E47.5306
G1 X117.674 Y89.257 E47.61778
G1 X118.347 Y89.53 E47.70493
G1 X118.986 Y89.875 E47.79207
G1 X119.583 Y90.289 E47.87925
G1 X120.2 Y90.833 E47.97796
G1 X120.317 Y90.95 E47.99782
G1 X120.801 Y91.491 E48.08493
G1 X121.224 Y92.082 E48.17214
G1 X121.578 Y92.716 E48.25928
G1 X121.861 Y93.385 E48.34644
G1 X122.069 Y94.081 E48.43361
G1 X122.199 Y94.796 E48.52082
G1 X122.25 Y95.617 E48.61953
G1 X122.25 Y127.383 E52.43145
G1 X122.21 Y128.108 E52.51858
G1 X122.091 Y128.825 E52.6058
G1 X121.893 Y129.524 E52.69298
G1 X121.62 Y130.197 E52.78013
G1 X121.275 Y130.836 E52.86727
G1 X120.861 Y131.433 E52.95445
G1 X120.317 Y132.05 E53.05316
G1 X120.2 Y132.167 E53.07302
G1 X119.659 Y132.651 E53.16013
G1 X119.068 Y133.074 E53.24734
G1 X118.434 Y133.428 E53.33448
G1 X117.765 Y133.711 E53.42164
G1 X117.069 Y133.919 E53.50881
G1 X116.354 Y134.049 E53.59602
G1 X115.533 Y134.1 E53.69473
G1 X107.467 Y134.1 E54.66265
G1 X106.742 Y134.06 E54.74978
G1 X106.025 Y133.941 E54.837
G1 X105.326 Y133.743 E54.92418
G1 X104.653 Y133.47 E55.01133
G1 X104.014 Y133.125 E55.09847
G1 X103.417 Y132.711 E55.18565
G1 X102.8 Y132.167 E55.28436
G1 X102.683 Y132.05 E55.30422
G1 X102.199 Y131.509 E55.39133
G1 X101.776 Y130.918 E55.47854
G1 X101.422 Y130.284 E55.56568
G1 X101.139 Y129.615 E55.65284
G1 X100.931 Y128.919 E55.74001
G1 X100.801 Y128.204 E55.82722
G1 X100.75 Y127.383 E55.92593
G1 X100.75 Y95.617 E59.73785
G1 X100.79 Y94.892 E59.82498
G1 X100.909 Y94.175 E59.9122
G1 X101.107 Y93.476 E59.99938
G1 X101.38 Y92.803 E60.08653
G1 X101.725 Y92.164 E60.17367
G1 X102.139 Y91.567 E60.26085
G0 F3600 X102.535 Y91.711
G1 F1800 X102.966 Y91.233 E60.33809
G1 X103.083 Y91.116 E60.35794
G1 X103.608 Y90.647 E60.44242
G1 X104.183 Y90.241 E60.52689
G1 X104.801 Y89.903 E60.61141
G1 X105.452 Y89.636 E60.69585
G1 X106.13 Y89.446 E60.78034
G1 X106.825 Y89.333 E60.86484
G1 X107.467 Y89.3 E60.94198
G1 X115.533 Y89.3 E61.9099
G1 X116.236 Y89.34 E61.9944
G1 X116.93 Y89.459 E62.07889
G1 X117.605 Y89.657 E62.16331
G1 X118.254 Y89.929 E62.24775
G1 X118.868 Y90.274 E62.33226
G1 X119.439 Y90.685 E62.41669
G1 X119.917 Y91.116 E62.49392
G1 X120.034 Y91.233 E62.51378
G1 X120.503 Y91.758 E62.59826
G1 X120.909 Y92.333 E62.68272
G1 X121.247 Y92.951 E62.76725
G1 X121.514 Y93.602 E62.85168
G1 X121.704 Y94.28 E62.93618
G1 X121.817 Y94.975 E63.02067
G1 X121.85 Y95.617 E63.09782
G1 X121.85 Y127.383 E66.90974
G1 X121.81 Y128.086 E66.99423
G1 X121.691 Y128.78 E67.07873
G1 X121.493 Y129.455 E67.16314
G1 X121.221 Y130.104 E67.24758
G1 X120.876 Y130.718 E67.3321
G1 X120.465 Y131.289 E67.41652
G1 X120.034 Y131.767 E67.49376
G1 X119.917 Y131.884 E67.51361
G1 X119.392 Y132.353 E67.59809
G1 X118.817 Y132.759 E67.68256
G1 X118.199 Y133.097 E67.76708
G1 X117.548 Y133.364 E67.85152
G1 X116.87 Y133.554 E67.93601
G1 X116.175 Y133.667 E68.02051
G1 X115.533 Y133.7 E68.09765
G1 X107.467 Y133.7 E69.06557
G1 X106.764 Y133.66 E69.15007
G1 X106.07 Y133.541 E69.23456
G1 X105.395 Y133.343 E69.31897
G1 X104.746 Y133.071 E69.40342
G1 X104.132 Y132.726 E69.48793
G1 X103.561 Y132.315 E69.57236
G1 X103.083 Y131.884 E69.64959
G1 X102.966 Y131.767 E69.66945
G1 X102.497 Y131.242 E69.75392
G1 X102.091 Y130.667 E69.83839
G1 X101.753 Y130.049 E69.92292
G1 X101.486 Y129.398 E70.00735
G1 X101.296 Y128.72 E70.09185
G1 X101.183 Y128.025 E70.17634
G1 X101.15 Y127.383 E70.25348
G1 X101.15 Y95.617 E74.0654
G1 X101.19 Y94.914 E74.1499
G1 X101.309 Y94.22 E74.2344
G1 X101.507 Y93.545 E74.31881
G1 X101.779 Y92.896 E74.40325
G1 X102.124 Y92.282 E74.48777
G1 X102.535 Y91.711 E74.57219
G0 F3600 X102.932 Y91.859
G1 F1800 X103.249 Y91.516 E74.62824
G1 X103.366 Y91.399 E74.64809
G1 X103.875 Y90.946 E74.72986
G1 X104.433 Y90.557 E74.81148
G1 X105.033 Y90.235 E74.8932
G1 X105.667 Y89.986 E74.97493
G1 X106.326 Y89.813 E75.05669
G1 X107 Y89.719 E75.13836
G1 X107.467 Y89.7 E75.19444
G1 X115.533 Y89.7 E76.16236
G1 X116.213 Y89.74 E76.2441
G1 X116.883 Y89.859 E76.32576
G1 X117.535 Y90.056 E76.4075
G1 X118.159 Y90.328 E76.48918
G1 X118.747 Y90.672 E76.57093
G1 X119.291 Y91.082 E76.65267
G1 X119.634 Y91.399 E76.70872
G1 X119.751 Y91.516 E76.72858
G1 X120.204 Y92.025 E76.81034
G1 X120.593 Y92.583 E76.89197
G1 X120.915 Y93.183 E76.97368
G1 X121.164 Y93.817 E77.05542
G1 X121.337 Y94.476 E77.13718
G1 X121.431 Y95.15 E77.21884
G1 X121.45 Y95.617 E77.27493
G1 X121.45 Y127.383 E81.08685
G1 X121.41 Y128.063 E81.16859
G1 X121.291 Y128.733 E81.25025
G1 X121.094 Y129.385 E81.33198
G1 X120.822 Y130.009 E81.41366
G1 X120.478 Y130.597 E81.49541
G1 X120.068 Y131.141 E81.57716
G1 X119.751 Y131.484 E81.6332
G1 X119.634 Y131.601 E81.65306
G1 X119.125 Y132.054 E81.73482
G1 X118.567 Y132.443 E81.81645
G1 X117.967 Y132.765 E81.89816
G1 X117.333 Y133.014 E81.9799
G1 X116.674 Y133.187 E82.06166
G1 X116 Y133.281 E82.14332
G1 X115.533 Y133.3 E82.19941
G1 X107.467 Y133.3 E83.16733
G1 X106.787 Y133.26 E83.24907
G1 X106.117 Y133.141 E83.33073
G1 X105.465 Y132.944 E83.41246
G1 X104.841 Y132.672 E83.49415
G1 X104.253 Y132.328 E83.57589
G1 X103.709 Y131.918 E83.65764
G1 X103.366 Y131.601 E83.71368
G1 X103.249 Y131.484 E83.73354
G1 X102.796 Y130.975 E83.81531
G1 X102.407 Y130.417 E83.89693
G1 X102.085 Y129.817 E83.97865
G1 X101.836 Y129.183 E84.06038
G1 X101.663 Y128.524 E84.14214
G1 X101.569 Y127.85 E84.2238
G1 X101.55 Y127.383 E84.27989
G1 X101.55 Y95.617 E88.09181
G1 X101.59 Y94.937 E88.17355
G1 X101.709 Y94.267 E88.25521
G1 X101.906 Y93.615 E88.33694
G1 X102.178 Y92.991 E88.41863
G1 X102.522 Y92.403 E88.50038
G1 X102.932 Y91.859 E88.58212
G0 F3600 X103.532 Y91.799
G1 F1800 X103.649 Y91.682 E88.60198
G1 X104.141 Y91.246 E88.68086
G1 X104.682 Y90.874 E88.75965
G1 X105.264 Y90.57 E88.83844
G1 X105.879 Y90.339 E88.91728
G1 X106.518 Y90.184 E88.99618
G1 X107.467 Y90.1 E89.11051
G1 X115.533 Y90.1 E90.07843
G1 X116.189 Y90.14 E90.15729
G1 X116.835 Y90.259 E90.23612
G1 X117.462 Y90.456 E90.31498
G1 X118.06 Y90.728 E90.39382
G1 X118.621 Y91.07 E90.47266
G1 X119.351 Y91.682 E90.58697
G1 X119.468 Y91.799 E90.60683
G1 X119.904 Y92.291 E90.68571
G1 X120.276 Y92.832 E90.7645
G1 X120.58 Y93.414 E90.84329
G1 X120.811 Y94.029 E90.92213
G1 X120.966 Y94.668 E91.00103
G1 X121.05 Y95.617 E91.11536
G1 X121.05 Y127.383 E94.92728
G1 X121.01 Y128.039 E95.00614
G1 X120.891 Y128.685 E95.08497
G1 X120.694 Y129.312 E95.16383
G1 X120.422 Y129.91 E95.24267
G1 X120.08 Y130.471 E95.32151
G1 X119.468 Y131.201 E95.43582
G1 X119.351 Y131.318 E95.45568
G1 X118.859 Y131.754 E95.53457
G1 X118.318 Y132.126 E95.61335
G1 X117.736 Y132.43 E95.69215
G1 X117.121 Y132.661 E95.77098
G1 X116.482 Y132.816 E95.84988
G1 X115.533 Y132.9 E95.96421
G1 X107.467 Y132.9 E96.93213
G1 X106.811 Y132.86 E97.011
G1 X106.165 Y132.741 E97.08982
G1 X105.538 Y132.544 E97.16869
G1 X104.94 Y132.272 E97.24752
G1 X104.379 Y131.93 E97.32636
G1 X103.649 Y131.318 E97.44068
G1 X103.532 Y131.201 E97.46053
G1 X103.096 Y130.709 E97.53942
G1 X102.724 Y130.168 E97.61821
G1 X102.42 Y129.586 E97.697
G1 X102.189 Y128.971 E97.77583
G1 X102.034 Y128.332 E97.85474
G1 X101.95 Y127.383 E97.96906
G1 X101.95 Y95.617 E101.78098
G1 X101.99 Y94.961 E101.85985
G1 X102.109 Y94.315 E101.93867
G1 X102.306 Y93.688 E102.01754
G1 X102.578 Y93.09 E102.09637
G1 X102.92 Y92.529 E102.17522
G1 X103.532 Y91.799 E102.28953
G0 F3600 X103.814 Y92.081
G1 F1800 X103.931 Y91.964 E102.30938
G1 X104.406 Y91.547 E102.38523
G1 X104.929 Y91.192 E102.46108
G1 X105.493 Y90.906 E102.53697
G1 X106.088 Y90.694 E102.61277
G1 X106.706 Y90.558 E102.6887
G1 X107.467 Y90.5 E102.78029
G1 X115.533 Y90.5 E103.74821
G1 X116.164 Y90.54 E103.82408
G1 X116.785 Y90.659 E103.89995
G1 X117.385 Y90.856 E103.97573
G1 X117.957 Y91.127 E104.05169
G1 X118.489 Y91.467 E104.12745
G1 X119.069 Y91.964 E104.21911
G1 X119.186 Y92.081 E104.23897
G1 X119.603 Y92.556 E104.31481
G1 X119.958 Y93.079 E104.39067
G1 X120.244 Y93.643 E104.46655
G1 X120.456 Y94.238 E104.54235
G1 X120.592 Y94.856 E104.61828
G1 X120.65 Y95.617 E104.70987
G1 X120.65 Y127.383 E108.52179
G1 X120.61 Y128.014 E108.59766
G1 X120.491 Y128.635 E108.67354
G1 X120.294 Y129.235 E108.74932
G1 X120.023 Y129.807 E108.82527
G1 X119.683 Y130.339 E108.90103
G1 X119.186 Y130.919 E108.99269
G1 X119.069 Y131.036 E109.01255
G1 X118.594 Y131.453 E109.0884
G1 X118.071 Y131.808 E109.16425
G1 X117.507 Y132.094 E109.24013
G1 X116.912 Y132.306 E109.31593
G1 X116.294 Y132.442 E109.39186
G1 X115.533 Y132.5 E109.48345
G1 X107.467 Y132.5 E110.45137
G1 X106.836 Y132.46 E110.52724
G1 X106.215 Y132.341 E110.60312
G1 X105.615 Y132.144 E110.6789
G1 X105.043 Y131.873 E110.75485
G1 X104.511 Y131.533 E110.83062
G1 X103.931 Y131.036 E110.92227
G1 X103.814 Y130.919 E110.94213
G1 X103.397 Y130.444 E111.01798
G1 X103.042 Y129.921 E111.09383
G1 X102.756 Y129.357 E111.16971
G1 X102.544 Y128.762 E111.24551
G1 X102.408 Y128.144 E111.32145
G1 X102.35 Y127.383 E111.41303
G1 X102.35 Y95.617 E115.22495
G1 X102.39 Y94.986 E115.30082
G1 X102.509 Y94.365 E115.3767
G1 X102.706 Y93.765 E115.45248
G1 X102.977 Y93.193 E115.52843
G1 X103.317 Y92.661 E115.6042
G1 X103.814 Y92.081 E115.69586
G0 F3600 X103.715 Y92.798
G1 F1800 X104.097 Y92.364 E115.76524
G1 X104.214 Y92.247 E115.78509
G1 X104.67 Y91.848 E115.8578
G1 X105.175 Y91.512 E115.93059
G1 X105.719 Y91.245 E116.00331
