;FLAVOR:UltiGCode
;TIME:2241
;MATERIAL:2452
;MATERIAL2:0
;NOZZLE_DIAMETER:0.4
;Generated with Cura_SteamEngine 3.1.0
M82 ; absolute extrusion mode

;LAYER_COUNT:219
;LAYER:0
M107
G0 F3600 X102.88 Y90.539 Z0.3
;TYPE:SKIRT
G1 F1800 X103.285 Y90.102 E0.0715
G1 X103.402 Y89.985 E0.09135
G1 X103.988 Y89.455 E0.18617
G1 X104.624 Y88.988 E0.28085
G1 X105.304 Y88.587 E0.37558
G1 X106.022 Y88.257 E0.47041
G1 X106.769 Y88.002 E0.56513
G1 X107.538 Y87.823 E0.65988
G1 X108.322 Y87.723 E0.75472
G1 X108.917 Y87.7 E0.82617
G1 X114.083 Y87.7 E1.44609
G1 X114.872 Y87.74 E1.54089
G1 X115.652 Y87.859 E1.63558
G1 X116.417 Y88.057 E1.7304
G1 X117.157 Y88.331 E1.82509
G1 X117.866 Y88.679 E1.91987
G1 X118.537 Y89.097 E2.01473
G1 X119.161 Y89.58 E2.10942
G1 X119.598 Y89.985 E2.18092
G1 X119.715 Y90.102 E2.20078
G1 X120.245 Y90.688 E2.29559
G1 X120.712 Y91.324 E2.39028
G1 X121.113 Y92.004 E2.48501
G1 X121.443 Y92.722 E2.57983
G1 X121.698 Y93.469 E2.67455
G1 X121.877 Y94.238 E2.7693
G1 X121.977 Y95.022 E2.86414
G1 X122 Y95.617 E2.9356
G1 X122 Y127.383 E6.74752
G1 X121.96 Y128.172 E6.84232
G1 X121.841 Y128.952 E6.937
G1 X121.643 Y129.717 E7.03183
G1 X121.369 Y130.457 E7.12652
G1 X121.021 Y131.166 E7.22129
G1 X120.603 Y131.837 E7.31616
G1 X120.12 Y132.461 E7.41085
G1 X119.715 Y132.898 E7.48235
G1 X119.598 Y133.015 E7.5022
G1 X119.012 Y133.545 E7.59702
G1 X118.376 Y134.012 E7.6917
G1 X117.696 Y134.413 E7.78643
G1 X116.978 Y134.743 E7.88126
G1 X116.231 Y134.998 E7.97598
G1 X115.462 Y135.177 E8.07072
G1 X114.678 Y135.277 E8.16557
G1 X114.083 Y135.3 E8.23702
G1 X108.917 Y135.3 E8.85694
G1 X108.128 Y135.26 E8.95174
G1 X107.348 Y135.141 E9.04643
G1 X106.583 Y134.943 E9.14125
G1 X105.843 Y134.669 E9.23594
G1 X105.134 Y134.321 E9.33072
G1 X104.463 Y133.903 E9.42558
G1 X103.839 Y133.42 E9.52027
G1 X103.402 Y133.015 E9.59177
G1 X103.285 Y132.898 E9.61163
G1 X102.755 Y132.312 E9.70644
G1 X102.288 Y131.676 E9.80113
G1 X101.887 Y130.996 E9.89586
G1 X101.557 Y130.278 E9.99068
G1 X101.302 Y129.531 E10.0854
G1 X101.123 Y128.762 E10.18015
G1 X101.023 Y127.978 E10.27499
G1 X101 Y127.383 E10.34645
G1 X101 Y95.617 E14.15837
G1 X101.04 Y94.828 E14.25317
G1 X101.159 Y94.048 E14.34785
G1 X101.357 Y93.283 E14.44268
G1 X101.631 Y92.543 E14.53737
G1 X101.979 Y91.834 E14.63214
G1 X102.397 Y91.163 E14.72701
G1 X102.88 Y90.539 E14.8217
G0 F3600 X103.275 Y90.694
G1 F1800 X103.567 Y90.384 E14.8728
G1 X103.684 Y90.267 E14.89266
G1 X104.256 Y89.753 E14.98494
G1 X104.878 Y89.3 E15.07728
G1 X105.543 Y88.914 E15.16955
G1 X106.245 Y88.599 E15.26188
G1 X106.976 Y88.359 E15.35421
G1 X107.727 Y88.196 E15.44642
G1 X108.492 Y88.112 E15.53878
G1 X108.917 Y88.1 E15.5898
G1 X114.083 Y88.1 E16.20972
G1 X114.851 Y88.14 E16.302
G1 X115.611 Y88.259 E16.39431
G1 X116.354 Y88.457 E16.48658
G1 X117.073 Y88.731 E16.57892
G1 X117.759 Y89.078 E16.67117
G1 X118.406 Y89.494 E16.76347
G1 X119.006 Y89.975 E16.85575
G1 X119.316 Y90.267 E16.90686
G1 X119.433 Y90.384 E16.92671
G1 X119.947 Y90.956 E17.01899
G1 X120.4 Y91.578 E17.11133
G1 X120.786 Y92.243 E17.2036
G1 X121.101 Y92.945 E17.29593
G1 X121.341 Y93.676 E17.38826
G1 X121.504 Y94.427 E17.48048
G1 X121.588 Y95.192 E17.57283
G1 X121.6 Y95.617 E17.62385
G1 X121.6 Y127.383 E21.43577
G1 X121.56 Y128.151 E21.52805
G1 X121.441 Y128.911 E21.62037
G1 X121.243 Y129.654 E21.71264
G1 X120.969 Y130.373 E21.80497
G1 X120.622 Y131.059 E21.89722
G1 X120.206 Y131.706 E21.98953
G1 X119.725 Y132.306 E22.08181
G1 X119.433 Y132.616 E22.13291
G1 X119.316 Y132.733 E22.15277
G1 X118.744 Y133.247 E22.24505
G1 X118.122 Y133.7 E22.33738
G1 X117.457 Y134.086 E22.42965
G1 X116.755 Y134.401 E22.52199
G1 X116.024 Y134.641 E22.61431
G1 X115.273 Y134.804 E22.70653
G1 X114.508 Y134.888 E22.79888
G1 X114.083 Y134.9 E22.8499
G1 X108.917 Y134.9 E23.46982
G1 X108.149 Y134.86 E23.56211
G1 X107.389 Y134.741 E23.65442
G1 X106.646 Y134.543 E23.74669
G1 X105.927 Y134.269 E23.83902
G1 X105.241 Y133.922 E23.93127
G1 X104.594 Y133.506 E24.02358
G1 X103.994 Y133.025 E24.11586
G1 X103.684 Y132.733 E24.16696
G1 X103.567 Y132.616 E24.18682
G1 X103.053 Y132.044 E24.2791
G1 X102.6 Y131.422 E24.37144
G1 X102.214 Y130.757 E24.46371
G1 X101.899 Y130.055 E24.55604
G1 X101.659 Y129.324 E24.64836
G1 X101.496 Y128.573 E24.74058
G1 X101.412 Y127.808 E24.83294
G1 X101.4 Y127.383 E24.88396
G1 X101.4 Y95.617 E28.69588
G1 X101.44 Y94.849 E28.78816
G1 X101.559 Y94.089 E28.88047
G1 X101.757 Y93.346 E28.97274
G1 X102.031 Y92.627 E29.06508
G1 X102.378 Y91.941 E29.15733
G1 X102.794 Y91.294 E29.24963
G1 X103.275 Y90.694 E29.34191
G0 F3600 X103.192 Y91.428
G1 F1800 X103.85 Y90.667 E29.46263
G1 X103.967 Y90.55 E29.48249
G1 X104.524 Y90.05 E29.57231
G1 X105.13 Y89.613 E29.66197
G1 X105.78 Y89.242 E29.75178
G1 X106.466 Y88.943 E29.84158
G1 X107.18 Y88.719 E29.93137
G1 X107.913 Y88.572 E30.02109
G1 X108.917 Y88.5 E30.14187
G1 X114.083 Y88.5 E30.76179
G1 X114.83 Y88.54 E30.85156
G1 X115.568 Y88.659 E30.94127
G1 X116.29 Y88.857 E31.03111
G1 X116.986 Y89.13 E31.12082
G1 X117.649 Y89.477 E31.21062
G1 X118.272 Y89.892 E31.30045
G1 X119.033 Y90.55 E31.42117
G1 X119.15 Y90.667 E31.44103
G1 X119.65 Y91.224 E31.53085
G1 X120.087 Y91.83 E31.6205
G1 X120.458 Y92.48 E31.71031
G1 X120.757 Y93.166 E31.80011
G1 X120.981 Y93.88 E31.88991
G1 X121.128 Y94.613 E31.97962
G1 X121.2 Y95.617 E32.10041
G1 X121.2 Y127.383 E35.91233
G1 X121.16 Y128.13 E36.0021
G1 X121.041 Y128.868 E36.0918
G1 X120.843 Y129.59 E36.18164
G1 X120.57 Y130.286 E36.27136
G1 X120.223 Y130.949 E36.36115
G1 X119.808 Y131.572 E36.45098
G1 X119.15 Y132.333 E36.57171
G1 X119.033 Y132.45 E36.59156
G1 X118.476 Y132.95 E36.68138
G1 X117.87 Y133.387 E36.77104
G1 X117.22 Y133.758 E36.86085
G1 X116.534 Y134.057 E36.95065
G1 X115.82 Y134.281 E37.04044
G1 X115.087 Y134.428 E37.13016
G1 X114.083 Y134.5 E37.25095
G1 X108.917 Y134.5 E37.87087
G1 X108.17 Y134.46 E37.96063
G1 X107.432 Y134.341 E38.05034
G1 X106.71 Y134.143 E38.14018
G1 X106.014 Y133.87 E38.22989
G1 X105.351 Y133.523 E38.31969
G1 X104.728 Y133.108 E38.40952
G1 X103.967 Y132.45 E38.53024
G1 X103.85 Y132.333 E38.5501
G1 X103.35 Y131.776 E38.63992
G1 X102.913 Y131.17 E38.72957
G1 X102.542 Y130.52 E38.81938
G1 X102.243 Y129.834 E38.90918
G1 X102.019 Y129.12 E38.99898
G1 X101.872 Y128.387 E39.08869
G1 X101.8 Y127.383 E39.20948
G1 X101.8 Y95.617 E43.0214
G1 X101.84 Y94.87 E43.11117
G1 X101.959 Y94.132 E43.20087
G1 X102.157 Y93.41 E43.29071
G1 X102.43 Y92.714 E43.38043
G1 X102.777 Y92.051 E43.47023
G1 X103.192 Y91.428 E43.56005
G0 F3600 X103.589 Y91.567
G1 F1800 X104.133 Y90.95 E43.65876
G1 X104.25 Y90.833 E43.67862
G1 X104.791 Y90.349 E43.76573
G1 X105.382 Y89.926 E43.85294
G1 X106.016 Y89.572 E43.94008
G1 X106.685 Y89.289 E44.02724
G1 X107.381 Y89.081 E44.11441
G1 X108.096 Y88.951 E44.20162
G1 X108.917 Y88.9 E44.30033
G1 X114.083 Y88.9 E44.92025
G1 X114.808 Y88.94 E45.00738
G1 X115.525 Y89.059 E45.0946
G1 X116.224 Y89.257 E45.18178
G1 X116.897 Y89.53 E45.26893
G1 X117.536 Y89.875 E45.35607
G1 X118.133 Y90.289 E45.44325
G1 X118.75 Y90.833 E45.54196
G1 X118.867 Y90.95 E45.56182
G1 X119.351 Y91.491 E45.64893
G1 X119.774 Y92.082 E45.73614
G1 X120.128 Y92.716 E45.82328
G1 X120.411 Y93.385 E45.91044
G1 X120.619 Y94.081 E45.99761
G1 X120.749 Y94.796 E46.08482
G1 X120.8 Y95.617 E46.18353
G1 X120.8 Y127.383 E49.99545
G1 X120.76 Y128.108 E50.08258
G1 X120.641 Y128.825 E50.1698
G1 X120.443 Y129.524 E50.25698
G1 X120.17 Y130.197 E50.34413
G1 X119.825 Y130.836 E50.43127
G1 X119.411 Y131.433 E50.51845
G1 X118.867 Y132.05 E50.61716
G1 X118.75 Y132.167 E50.63702
G1 X118.209 Y132.651 E50.72413
G1 X117.618 Y133.074 E50.81134
G1 X116.984 Y133.428 E50.89848
G1 X116.315 Y133.711 E50.98564
G1 X115.619 Y133.919 E51.07281
G1 X114.904 Y134.049 E51.16002
G1 X114.083 Y134.1 E51.25873
G1 X108.917 Y134.1 E51.87865
G1 X108.192 Y134.06 E51.96578
G1 X107.475 Y133.941 E52.053
G1 X106.776 Y133.743 E52.14018
G1 X106.103 Y133.47 E52.22733
G1 X105.464 Y133.125 E52.31447
G1 X104.867 Y132.711 E52.40165
G1 X104.25 Y132.167 E52.50036
G1 X104.133 Y132.05 E52.52022
G1 X103.649 Y131.509 E52.60733
G1 X103.226 Y130.918 E52.69454
G1 X102.872 Y130.284 E52.78168
G1 X102.589 Y129.615 E52.86884
G1 X102.381 Y128.919 E52.95601
G1 X102.251 Y128.204 E53.04322
G1 X102.2 Y127.383 E53.14193
G1 X102.2 Y95.617 E56.95385
G1 X102.24 Y94.892 E57.04098
G1 X102.359 Y94.175 E57.1282
G1 X102.557 Y93.476 E57.21538
G1 X102.83 Y92.803 E57.30253
G1 X103.175 Y92.164 E57.38967
G1 X103.589 Y91.567 E57.47685
G0 F3600 X103.985 Y91.711
G1 F1800 X104.416 Y91.233 E57.55409
G1 X104.533 Y91.116 E57.57394
G1 X105.058 Y90.647 E57.65842
G1 X105.633 Y90.241 E57.74289
G1 X106.251 Y89.903 E57.82741
G1 X106.902 Y89.636 E57.91185
G1 X107.58 Y89.446 E57.99634
G1 X108.275 Y89.333 E58.08084
G1 X108.917 Y89.3 E58.15798
G1 X114.083 Y89.3 E58.7779
G1 X114.786 Y89.34 E58.8624
G1 X115.48 Y89.459 E58.94689
G1 X116.155 Y89.657 E59.03131
G1 X116.804 Y89.929 E59.11575
G1 X117.418 Y90.274 E59.20026
G1 X117.989 Y90.685 E59.28469
G1 X118.467 Y91.116 E59.36192
G1 X118.584 Y91.233 E59.38178
G1 X119.053 Y91.758 E59.46626
G1 X119.459 Y92.333 E59.55072
G1 X119.797 Y92.951 E59.63525
G1 X120.064 Y93.602 E59.71968
G1 X120.254 Y94.28 E59.80418
G1 X120.367 Y94.975 E59.88867
G1 X120.4 Y95.617 E59.96582
G1 X120.4 Y127.383 E63.77774
G1 X120.36 Y128.086 E63.86223
G1 X120.241 Y128.78 E63.94673
G1 X120.043 Y129.455 E64.03114
G1 X119.771 Y130.104 E64.11558
G1 X119.426 Y130.718 E64.2001
G1 X119.015 Y131.289 E64.28452
G1 X118.584 Y131.767 E64.36176
G1 X118.467 Y131.884 E64.38161
G1 X117.942 Y132.353 E64.46609
G1 X117.367 Y132.759 E64.55056
G1 X116.749 Y133.097 E64.63508
G1 X116.098 Y133.364 E64.71952
G1 X115.42 Y133.554 E64.80401
G1 X114.725 Y133.667 E64.88851
G1 X114.083 Y133.7 E64.96565
G1 X108.917 Y133.7 E65.58557
G1 X108.214 Y133.66 E65.67007
G1 X107.52 Y133.541 E65.75456
G1 X106.845 Y133.343 E65.83897
G1 X106.196 Y133.071 E65.92342
G1 X105.582 Y132.726 E66.00793
G1 X105.011 Y132.315 E66.09236
G1 X104.533 Y131.884 E66.16959
G1 X104.416 Y131.767 E66.18945
G1 X103.947 Y131.242 E66.27392
G1 X103.541 Y130.667 E66.35839
G1 X103.203 Y130.049 E66.44292
G1 X102.936 Y129.398 E66.52735
G1 X102.746 Y128.72 E66.61185
G1 X102.633 Y128.025 E66.69634
G1 X102.6 Y127.383 E66.77348
G1 X102.6 Y95.617 E70.5854
G1 X102.64 Y94.914 E70.6699
G1 X102.759 Y94.22 E70.7544
G1 X102.957 Y93.545 E70.83881
G1 X103.229 Y92.896 E70.92325
G1 X103.574 Y92.282 E71.00777
G1 X103.985 Y91.711 E71.09219
G0 F3600 X104.382 Y91.859
G1 F1800 X104.699 Y91.516 E71.14824
G1 X104.816 Y91.399 E71.16809
G1 X105.325 Y90.946 E71.24986
G1 X105.883 Y90.557 E71.33148
G1 X106.483 Y90.235 E71.4132
G1 X107.117 Y89.986 E71.49493
G1 X107.776 Y89.813 E71.57669
G1 X108.45 Y89.719 E71.65836
G1 X108.917 Y89.7 E71.71444
G1 X114.083 Y89.7 E72.33436
G1 X114.763 Y89.74 E72.4161
G1 X115.433 Y89.859 E72.49776
G1 X116.085 Y90.056 E72.5795
G1 X116.709 Y90.328 E72.66118
G1 X117.297 Y90.672 E72.74293
G1 X117.841 Y91.082 E72.82467
G1 X118.184 Y91.399 E72.88072
G1 X118.301 Y91.516 E72.90058
G1 X118.754 Y92.025 E72.98234
G1 X119.143 Y92.583 E73.06397
G1 X119.465 Y93.183 E73.14568
G1 X119.714 Y93.817 E73.22742
G1 X119.887 Y94.476 E73.30918
G1 X119.981 Y95.15 E73.39084
G1 X120 Y95.617 E73.44693
G1 X120 Y127.383 E77.25885
G1 X119.96 Y128.063 E77.34059
G1 X119.841 Y128.733 E77.42225
G1 X119.644 Y129.385 E77.50398
G1 X119.372 Y130.009 E77.58566
G1 X119.028 Y130.597 E77.66741
G1 X118.618 Y131.141 E77.74916
G1 X118.301 Y131.484 E77.8052
G1 X118.184 Y131.601 E77.82506
G1 X117.675 Y132.054 E77.90682
G1 X117.117 Y132.443 E77.98845
G1 X116.517 Y132.765 E78.07016
G1 X115.883 Y133.014 E78.1519
G1 X115.224 Y133.187 E78.23366
G1 X114.55 Y133.281 E78.31532
G1 X114.083 Y133.3 E78.37141
G1 X108.917 Y133.3 E78.99133
G1 X108.237 Y133.26 E79.07307
G1 X107.567 Y133.141 E79.15473
G1 X106.915 Y132.944 E79.23646
G1 X106.291 Y132.672 E79.31815
G1 X105.703 Y132.328 E79.39989
G1 X105.159 Y131.918 E79.48164
G1 X104.816 Y131.601 E79.53768
G1 X104.699 Y131.484 E79.55754
G1 X104.246 Y130.975 E79.63931
G1 X103.857 Y130.417 E79.72093
G1 X103.535 Y129.817 E79.80265
G1 X103.286 Y129.183 E79.88438
G1 X103.113 Y128.524 E79.96614
G1 X103.019 Y127.85 E80.0478
G1 X103 Y127.383 E80.10389
G1 X103 Y95.617 E83.91581
G1 X103.04 Y94.937 E83.99755
G1 X103.159 Y94.267 E84.07921
G1 X103.356 Y93.615 E84.16094
G1 X103.628 Y92.991 E84.24263
G1 X103.972 Y92.403 E84.32438
G1 X104.382 Y91.859 E84.40612
G0 F3600 X104.982 Y91.799
G1 F1800 X105.099 Y91.682 E84.42598
G1 X105.591 Y91.246 E84.50486
G1 X106.132 Y90.874 E84.58365
G1 X106.714 Y90.57 E84.66244
G1 X107.329 Y90.339 E84.74128
G1 X107.968 Y90.184 E84.82018
G1 X108.917 Y90.1 E84.93451
G1 X114.083 Y90.1 E85.55443
G1 X114.739 Y90.14 E85.63329
G1 X115.385 Y90.259 E85.71212
G1 X116.012 Y90.456 E85.79098
G1 X116.61 Y90.728 E85.86982
G1 X117.171 Y91.07 E85.94866
G1 X117.901 Y91.682 E86.06297
G1 X118.018 Y91.799 E86.08283
G1 X118.454 Y92.291 E86.16171
G1 X118.826 Y92.832 E86.2405
G1 X119.13 Y93.414 E86.31929
G1 X119.361 Y94.029 E86.39813
G1 X119.516 Y94.668 E86.47703
G1 X119.6 Y95.617 E86.59136
G1 X119.6 Y127.383 E90.40328
G1 X119.56 Y128.039 E90.48214
G1 X119.441 Y128.685 E90.56097
G1 X119.244 Y129.312 E90.63983
G1 X118.972 Y129.91 E90.71867
G1 X118.63 Y130.471 E90.79751
G1 X118.018 Y131.201 E90.91182
G1 X117.901 Y131.318 E90.93168
G1 X117.409 Y131.754 E91.01057
G1 X116.868 Y132.126 E91.08935
G1 X116.286 Y132.43 E91.16815
G1 X115.671 Y132.661 E91.24698
G1 X115.032 Y132.816 E91.32588
G1 X114.083 Y132.9 E91.44021
G1 X108.917 Y132.9 E92.06013
G1 X108.261 Y132.86 E92.139
G1 X107.615 Y132.741 E92.21782
G1 X106.988 Y132.544 E92.29669
G1 X106.39 Y132.272 E92.37552
G1 X105.829 Y131.93 E92.45436
G1 X105.099 Y131.318 E92.56868
G1 X104.982 Y131.201 E92.58853
G1 X104.546 Y130.709 E92.66742
G1 X104.174 Y130.168 E92.74621
G1 X103.87 Y129.586 E92.825
G1 X103.639 Y128.971 E92.90383
G1 X103.484 Y128.332 E92.98274
G1 X103.4 Y127.383 E93.09706
G1 X103.4 Y95.617 E96.90898
G1 X103.44 Y94.961 E96.98785
G1 X103.559 Y94.315 E97.06667
G1 X103.756 Y93.688 E97.14554
G1 X104.028 Y93.09 E97.22437
G1 X104.37 Y92.529 E97.30322
G1 X104.982 Y91.799 E97.41753
G0 F3600 X105.264 Y92.081
G1 F1800 X105.381 Y91.964 E97.43738
G1 X105.856 Y91.547 E97.51323
G1 X106.379 Y91.192 E97.58908
G1 X106.943 Y90.906 E97.66497
G1 X107.538 Y90.694 E97.74077
G1 X108.156 Y90.558 E97.8167
G1 X108.917 Y90.5 E97.90829
G1 X114.083 Y90.5 E98.52821
G1 X114.714 Y90.54 E98.60408
G1 X115.335 Y90.659 E98.67995
G1 X115.935 Y90.856 E98.75573
G1 X116.507 Y91.127 E98.83169
G1 X117.039 Y91.467 E98.90745
G1 X117.619 Y91.964 E98.99911
G1 X117.736 Y92.081 E99.01897
G1 X118.153 Y92.556 E99.09481
G1 X118.508 Y93.079 E99.17067
G1 X118.794 Y93.643 E99.24655
G1 X119.006 Y94.238 E99.32235
G1 X119.142 Y94.856 E99.39828
G1 X119.2 Y95.617 E99.48987
G1 X119.2 Y127.383 E103.30179
G1 X119.16 Y128.014 E103.37766
G1 X119.041 Y128.635 E103.45354
G1 X118.844 Y129.235 E103.52932
G1 X118.573 Y129.807 E103.60527
G1 X118.233 Y130.339 E103.68103
G1 X117.736 Y130.919 E103.77269
G1 X117.619 Y131.036 E103.79255
G1 X117.144 Y131.453 E103.8684
G1 X116.621 Y131.808 E103.94425
G1 X116.057 Y132.094 E104.02013
G1 X115.462 Y132.306 E104.09593
G1 X114.844 Y132.442 E104.17186
G1 X114.083 Y132.5 E104.26345
G1 X108.917 Y132.5 E104.88337
G1 X108.286 Y132.46 E104.95924
G1 X107.665 Y132.341 E105.03512
G1 X107.065 Y132.144 E105.1109
G1 X106.493 Y131.873 E105.18685
G1 X105.961 Y131.533 E105.26262
G1 X105.381 Y131.036 E105.35427
G1 X105.264 Y130.919 E105.37413
G1 X104.847 Y130.444 E105.44998
G1 X104.492 Y129.921 E105.52583
G1 X104.206 Y129.357 E105.60171
G1 X103.994 Y128.762 E105.67751
G1 X103.858 Y128.144 E105.75345
G1 X103.8 Y127.383 E105.84503
G1 X103.8 Y95.617 E109.65695
G1 X103.84 Y94.986 E109.73282
G1 X103.959 Y94.365 E109.8087
G1 X104.156 Y93.765 E109.88448
G1 X104.427 Y93.193 E109.96043
G1 X104.767 Y92.661 E110.0362
G1 X105.264 Y92.081 E110.12786
G0 F3600 X105.165 Y92.798
G1 F1800 X105.547 Y92.364 E110.19724
G1 X105.664 Y92.247 E110.21709
G1 X106.12 Y91.848 E110.2898
G1 X106.625 Y91.512 E110.36259
G1 X107.169 Y91.245 E110.43531
G1 X107.744 Y91.052 E110.50809
G1 X108.339 Y90.936 E110.58084
